X: 1
T: The Hidden Ireland
T: Aggie Whyte's
B: The Hidden Ireland: The First Collection of Tunes by Sen Ryan
M: 6/8
L: 1/8
R: jig
K: Dmaj
|: A, |\ 
DFA dcd | edc dAF | DFA dAF | A,CE GFE |
DFA dcd | edc dfb | afd gec | dAF D2 :|
|: f/g/ |\
afd gec | dcd AFA | fdB gec | dcB AFA |
~a3 bag | ~f3 ecA | dcd AFD | A,FC D2 :|
